X: 1
T: MacLeod's Farewell
P: Reel
C: Donald Shaw
M: C|
L: 1/8
K: E
D:'Sidewaulk' - Capercaillie
|:A|G2cG BGFG|(3EFE EF GBce|f2ge (3fgf ec|B2ef ecBA|
G2cG BGFG|(3EFE EF GBce|f2ge (3fgf ec|Bcef e3/2:|
|:c|~B3g fege|~B3g fege|BceB ceBA|(3GAG FE DcBA|
G2cG BGFG|(3EFE EF GBce|f2ge (3fgf ec|Bcef e3/2:|
